LUTs/M31 - Rec.709.cube
TITLE "M31 - Rec.709_32"
LUT_3D_SIZE 32
0.0432 0.0581 0.0668
0.0432 0.0614 0.0684
0.0504 0.0653 0.0699
0.0660 0.0698 0.0716
0.0848 0.0747 0.0729
0.1054 0.0811 0.0741
0.1277 0.0881 0.0750
0.1510 0.0953 0.0753
0.1760 0.1010 0.0747
0.2022 0.1063 0.0737
0.2296 0.1111 0.0727
0.2584 0.1156 0.0717
0.2876 0.1206 0.0718
0.3133 0.1283 0.0732
0.3398 0.1366 0.0762
0.3707 0.1426 0.0823
0.4024 0.1472 0.0895
0.4349 0.1517 0.0974
0.4682 0.1563 0.1056
0.5015 0.1610 0.1141
0.5350 0.1655 0.1230
0.5669 0.1707 0.1314
0.5980 0.1760 0.1392
0.6284 0.1814 0.1469
0.6579 0.1873 0.1541
0.6884 0.1945 0.1595
0.7187 0.2017 0.1646
0.7481 0.2091 0.1691
0.7770 0.2167 0.1732
0.8054 0.2246 0.1767
0.8335 0.2327 0.1795
0.8601 0.2408 0.1820
0.0432 0.0680 0.0670
0.0432 0.0683 0.0692
0.0513 0.0694 0.0693
0.0656 0.0747 0.0718
0.0847 0.0792 0.0735
0.1056 0.0837 0.0744
0.1281 0.0879 0.0750
0.1519 0.0933 0.0753
0.1771 0.0991 0.0749
0.2038 0.1051 0.0738
0.2313 0.1110 0.0726
0.2602 0.1158 0.0717
0.2892 0.1210 0.0719
0.3145 0.1278 0.0739
0.3416 0.1343 0.0784
0.3721 0.1399 0.0846
0.4035 0.1451 0.0915
0.4360 0.1504 0.0988
0.4692 0.1556 0.1066
0.5025 0.1608 0.1146
0.5358 0.1658 0.1231
0.5678 0.1712 0.1310
0.5991 0.1768 0.1386
0.6296 0.1828 0.1457
0.6600 0.1897 0.1514
0.6907 0.1968 0.1569
0.7205 0.2041 0.1619
0.7500 0.2115 0.1667
0.7793 0.2192 0.1708
0.8077 0.2272 0.1742
0.8353 0.2354 0.1771
0.8619 0.2438 0.1794
0.0432 0.0804 0.0674
0.0432 0.0806 0.0702
0.0493 0.0809 0.0722
0.0681 0.0803 0.0673
0.0888 0.0842 0.0696
0.1079 0.0910 0.0723
0.1293 0.0975 0.0734
0.1534 0.1023 0.0743
0.1795 0.1061 0.0741
0.2069 0.1091 0.0732
0.2353 0.1122 0.0723
0.2647 0.1161 0.0719
0.2937 0.1208 0.0724
0.3181 0.1280 0.0750
0.3462 0.1346 0.0797
0.3768 0.1405 0.0858
0.4081 0.1461 0.0923
0.4405 0.1518 0.0992
0.4733 0.1573 0.1067
0.5066 0.1627 0.1144
0.5394 0.1680 0.1224
0.5711 0.1736 0.1299
0.6022 0.1798 0.1364
0.6329 0.1867 0.1425
0.6633 0.1936 0.1481
0.6935 0.2007 0.1535
0.7237 0.2078 0.1586
0.7531 0.2152 0.1635
0.7819 0.2231 0.1673
0.8104 0.2313 0.1707
0.8385 0.2397 0.1737
0.8647 0.2483 0.1761
0.0432 0.0957 0.0675
0.0432 0.0961 0.0699
0.0491 0.0999 0.0723
0.0602 0.1002 0.0728
0.0918 0.0937 0.0669
0.1147 0.0957 0.0676
0.1363 0.1022 0.0687
0.1597 0.1092 0.0691
0.1845 0.1162 0.0694
0.2109 0.1216 0.0695
0.2398 0.1238 0.0692
0.2703 0.1266 0.0686
0.3008 0.1299 0.0692
0.3265 0.1362 0.0720
0.3545 0.1422 0.0772
0.3853 0.1477 0.0836
0.4167 0.1530 0.0903
0.4490 0.1584 0.0973
0.4814 0.1638 0.1044
0.5141 0.1690 0.1120
0.5465 0.1745 0.1194
0.5781 0.1808 0.1258
0.6092 0.1873 0.1319
0.6394 0.1939 0.1377
0.6694 0.2004 0.1435
0.6990 0.2072 0.1489
0.7288 0.2144 0.1538
0.7582 0.2220 0.1584
0.7867 0.2298 0.1624
0.8151 0.2380 0.1658
0.8427 0.2466 0.1688
0.8693 0.2553 0.1710
0.0432 0.1129 0.0675
0.0432 0.1154 0.0684
0.0470 0.1217 0.0675
0.0618 0.1198 0.0695
0.0793 0.1187 0.0711
0.1165 0.1096 0.0655
0.1425 0.1088 0.0654
0.1693 0.1150 0.0634
0.1951 0.1217 0.0627
0.2218 0.1288 0.0618
0.2486 0.1360 0.0614
0.2771 0.1422 0.0609
0.3076 0.1472 0.0619
0.3381 0.1528 0.0640
0.3642 0.1597 0.0679
0.3956 0.1643 0.0753
0.4275 0.1682 0.0832
0.4599 0.1725 0.0909
0.4923 0.1771 0.0985
0.5251 0.1817 0.1063
0.5572 0.1866 0.1136
0.5884 0.1924 0.1201
0.6188 0.1984 0.1263
0.6488 0.2045 0.1323
0.6786 0.2109 0.1377
0.7084 0.2181 0.1427
0.7378 0.2255 0.1473
0.7666 0.2329 0.1519
0.7946 0.2407 0.1557
0.8220 0.2488 0.1590
0.8491 0.2572 0.1621
0.8752 0.2661 0.1644
0.0432 0.1309 0.0665
0.0432 0.1356 0.0652
0.0460 0.1429 0.0619
0.0604 0.1408 0.0638
0.0844 0.1393 0.0689
0.1064 0.1343 0.0751
0.1443 0.1261 0.0635
0.1734 0.1231 0.0618
0.2043 0.1290 0.0582
0.2334 0.1355 0.0555
0.2626 0.1424 0.0532
0.2917 0.1495 0.0532
0.3204 0.1569 0.0555
0.3477 0.1644 0.0584
0.3745 0.1718 0.0623
0.4061 0.1777 0.0691
0.4386 0.1830 0.0764
0.4713 0.1884 0.0835
0.5043 0.1931 0.0912
0.5370 0.1969 0.0994
0.5691 0.2021 0.1065
0.6003 0.2077 0.1130
0.6312 0.2142 0.1187
0.6615 0.2206 0.1242
0.6914 0.2276 0.1293
0.7207 0.2344 0.1344
0.7497 0.2415 0.1392
0.7781 0.2491 0.1432
0.8052 0.2565 0.1471
0.8319 0.2645 0.1503
0.8583 0.2724 0.1536
0.8835 0.2810 0.1559
0.0432 0.1488 0.0648
0.0432 0.1557 0.0616
0.0444 0.1636 0.0563
0.0586 0.1620 0.0575
0.0844 0.1612 0.0634
0.1120 0.1558 0.0752
0.1381 0.1517 0.0739
0.1751 0.1427 0.0630
0.2072 0.1388 0.0588
0.2408 0.1438 0.0534
0.2750 0.1502 0.0469
0.3053 0.1574 0.0477
0.3330 0.1655 0.0518
0.3624 0.1732 0.0568
0.3928 0.1801 0.0624
0.4241 0.1866 0.0687
0.4541 0.1930 0.0744
0.4853 0.1993 0.0805
0.5170 0.2048 0.0872
0.5492 0.2109 0.0938
0.5812 0.2185 0.0991
0.6130 0.2266 0.1038
0.6440 0.2348 0.1085
0.6749 0.2421 0.1136
0.7049 0.2493 0.1186
0.7347 0.2564 0.1235
0.7638 0.2637 0.1279
0.7913 0.2709 0.1321
0.8184 0.2784 0.1357
0.8442 0.2859 0.1391
0.8693 0.2938 0.1419
0.8940 0.3021 0.1442
0.0432 0.1682 0.0633
0.0432 0.1747 0.0596
0.0433 0.1830 0.0533
0.0565 0.1838 0.0530
0.0830 0.1835 0.0587
0.1145 0.1784 0.0704
0.1391 0.1726 0.0842
0.1753 0.1711 0.0671
0.2088 0.1599 0.0632
0.2444 0.1557 0.0548
0.2804 0.1590 0.0466
0.3143 0.1662 0.0435
0.3477 0.1738 0.0502
0.3800 0.1808 0.0570
0.4119 0.1882 0.0631
0.4439 0.1949 0.0694
0.4755 0.2008 0.0760
0.5070 0.2069 0.0825
0.5390 0.2139 0.0881
0.5689 0.2221 0.0924
0.5992 0.2310 0.0963
0.6295 0.2401 0.0999
0.6587 0.2494 0.1031
0.6888 0.2589 0.1065
0.7191 0.2685 0.1097
0.7487 0.2779 0.1130
0.7774 0.2883 0.1153
0.8052 0.2977 0.1179
0.8323 0.3064 0.1208
0.8571 0.3142 0.1236
0.8819 0.3219 0.1265
0.9032 0.3291 0.1285
0.0432 0.1869 0.0627
0.0432 0.1928 0.0592
0.0432 0.2010 0.0526
0.0532 0.2058 0.0483
0.0814 0.2058 0.0537
0.1140 0.2016 0.0649
0.1465 0.1941 0.0802
0.1743 0.1939 0.0847
0.2127 0.1874 0.0624
0.2468 0.1776 0.0606
0.2845 0.1726 0.0488
0.3200 0.1753 0.0432
0.3568 0.1820 0.0461
0.3947 0.1892 0.0556
0.4307 0.1959 0.0638
0.4641 0.2025 0.0708
0.4975 0.2093 0.0774
0.5295 0.2173 0.0826
0.5612 0.2248 0.0879
0.5909 0.2334 0.0918
0.6209 0.2422 0.0956
0.6500 0.2511 0.0990
0.6796 0.2607 0.1021
0.7081 0.2709 0.1043
0.7362 0.2817 0.1061
0.7650 0.2935 0.1075
0.7923 0.3057 0.1080
0.8196 0.3177 0.1085
0.8459 0.3297 0.1088
0.8705 0.3413 0.1087
0.8947 0.3529 0.1083
0.9089 0.3576 0.1099
0.0432 0.2044 0.0626
0.0432 0.2099 0.0588
0.0432 0.2180 0.0518
0.0496 0.2271 0.0436
0.0790 0.2278 0.0482
0.1131 0.2246 0.0586
0.1482 0.2170 0.0740
0.1823 0.2108 0.0845
0.2192 0.2182 0.0759
0.2511 0.2034 0.0641
0.2874 0.1949 0.0568
0.3268 0.1905 0.0448
0.3631 0.1923 0.0432
0.4024 0.1975 0.0515
0.4425 0.2040 0.0616
0.4820 0.2115 0.0703
0.5192 0.2198 0.0771
0.5520 0.2277 0.0826
0.5835 0.2367 0.0869
0.6136 0.2456 0.0906
0.6419 0.2546 0.0938
0.6703 0.2635 0.0970
0.6986 0.2730 0.0997
0.7264 0.2835 0.1015
0.7546 0.2944 0.1031
0.7817 0.3061 0.1039
0.8094 0.3189 0.1040
0.8349 0.3321 0.1032
0.8606 0.3461 0.1017
0.8846 0.3598 0.0997
0.9080 0.3746 0.0966
0.9151 0.3779 0.0967
0.0432 0.2211 0.0625
0.0432 0.2262 0.0585
0.0432 0.2343 0.0514
0.0506 0.2433 0.0432
0.0769 0.2488 0.0432
0.1123 0.2470 0.0518
0.1494 0.2392 0.0674
0.1850 0.2306 0.0840
0.2282 0.2339 0.0706
0.2616 0.2371 0.0661
0.2902 0.2187 0.0694
0.3304 0.2123 0.0551
0.3696 0.2079 0.0432
0.4097 0.2090 0.0438
0.4503 0.2137 0.0564
0.4921 0.2221 0.0655
0.5324 0.2305 0.0736
0.5698 0.2394 0.0801
0.6035 0.2486 0.0851
0.6341 0.2576 0.0887
0.6619 0.2667 0.0918
0.6891 0.2763 0.0939
0.7163 0.2862 0.0961
0.7428 0.2963 0.0977
0.7702 0.3075 0.0990
0.7971 0.3196 0.0993
0.8238 0.3325 0.0990
0.8499 0.3461 0.0979
0.8748 0.3610 0.0953
0.8993 0.3756 0.0928
0.9216 0.3911 0.0887
0.9235 0.3922 0.0884
0.0432 0.2381 0.0619
0.0432 0.2419 0.0589
0.0432 0.2501 0.0509
0.0517 0.2586 0.0432
0.0788 0.2640 0.0432
0.1109 0.2697 0.0445
0.1514 0.2631 0.0589
0.1893 0.2549 0.0756
0.2285 0.2545 0.0750
0.2691 0.2584 0.0557
0.3039 0.2625 0.0632
0.3354 0.2393 0.0656
0.3776 0.2337 0.0486
0.4179 0.2293 0.0432
0.4602 0.2301 0.0446
0.5022 0.2359 0.0577
0.5423 0.2420 0.0682
0.5804 0.2509 0.0750
0.6157 0.2606 0.0802
0.6490 0.2701 0.0848
0.6794 0.2798 0.0881
0.7077 0.2893 0.0909
0.7335 0.2990 0.0925
0.7594 0.3097 0.0936
0.7848 0.3216 0.0936
0.8110 0.3337 0.0936
0.8368 0.3466 0.0929
0.8624 0.3604 0.0914
0.8872 0.3758 0.0883
0.9121 0.3911 0.0851
0.9337 0.4058 0.0811
0.9341 0.4059 0.0810
0.0432 0.2561 0.0606
0.0432 0.2574 0.0592
0.0432 0.2654 0.0511
0.0522 0.2741 0.0432
0.0795 0.2797 0.0432
0.1125 0.2865 0.0432
0.1538 0.2880 0.0493
0.1939 0.2810 0.0647
0.2296 0.2750 0.0785
0.2780 0.2840 0.0546
0.3117 0.2858 0.0450
0.3480 0.2897 0.0629
0.3840 0.2645 0.0550
0.4280 0.2593 0.0432
0.4707 0.2549 0.0432
0.5130 0.2536 0.0451
0.5537 0.2585 0.0584
0.5913 0.2652 0.0675
0.6258 0.2730 0.0741
0.6591 0.2824 0.0788
0.6906 0.2922 0.0825
0.7207 0.3026 0.0853
0.7496 0.3130 0.0876
0.7746 0.3239 0.0882
0.7991 0.3349 0.0883
0.8245 0.3477 0.0877
0.8495 0.3617 0.0857
0.8745 0.3756 0.0835
0.8988 0.3904 0.0805
0.9229 0.4062 0.0766
0.9434 0.4209 0.0718
0.9436 0.4211 0.0717
0.0432 0.2733 0.0603
0.0432 0.2741 0.0589
0.0432 0.2806 0.0515
0.0521 0.2896 0.0432
0.0813 0.2954 0.0432
0.1184 0.3022 0.0432
0.1586 0.3096 0.0438
0.1999 0.3051 0.0569
0.2366 0.2990 0.0721
0.2802 0.3058 0.0620
0.3285 0.3119 0.0437
0.3630 0.3188 0.0437
0.3951 0.3151 0.0558
0.4372 0.2914 0.0451
0.4819 0.2861 0.0432
0.5241 0.2817 0.0432
0.5641 0.2792 0.0440
0.6013 0.2832 0.0557
0.6360 0.2903 0.0634
0.6688 0.2974 0.0701
0.7000 0.3055 0.0753
0.7302 0.3156 0.0785
0.7592 0.3263 0.0807
0.7871 0.3381 0.0815
0.8141 0.3499 0.0818
0.8374 0.3623 0.0806
0.8617 0.3759 0.0785
0.8862 0.3911 0.0752
0.9099 0.4064 0.0712
0.9335 0.4226 0.0662
0.9507 0.4362 0.0608
0.9509 0.4363 0.0607
0.0432 0.2899 0.0610
0.0432 0.2906 0.0594
0.0432 0.2958 0.0530
0.0519 0.3059 0.0432
0.0863 0.3120 0.0432
0.1257 0.3195 0.0432
0.1657 0.3279 0.0434
0.2078 0.3279 0.0532
0.2455 0.3226 0.0684
0.2842 0.3254 0.0722
0.3348 0.3372 0.0454
0.3741 0.3408 0.0437
0.4161 0.3537 0.0438
0.4443 0.3397 0.0455
0.4922 0.3196 0.0444
0.5356 0.3140 0.0432
0.5747 0.3101 0.0432
0.6106 0.3081 0.0432
0.6448 0.3090 0.0496
0.6782 0.3158 0.0579
0.7095 0.3232 0.0639
0.7386 0.3311 0.0687
0.7673 0.3400 0.0723
0.7949 0.3518 0.0730
0.8227 0.3643 0.0732
0.8495 0.3778 0.0722
0.8740 0.3915 0.0699
0.8971 0.4063 0.0661
0.9193 0.4218 0.0610
0.9431 0.4388 0.0550
0.9527 0.4519 0.0465
0.9527 0.4516 0.0467
0.0432 0.3054 0.0640
0.0432 0.3062 0.0626
0.0432 0.3122 0.0551
0.0558 0.3236 0.0432
0.0952 0.3300 0.0432
0.1339 0.3380 0.0432
0.1745 0.3473 0.0432
0.2165 0.3491 0.0513
0.2552 0.3449 0.0657
0.2921 0.3459 0.0747
0.3394 0.3584 0.0514
0.3884 0.3669 0.0438
0.4206 0.3720 0.0439
0.4671 0.3869 0.0439
0.4970 0.3684 0.0461
0.5458 0.3489 0.0442
0.5849 0.3441 0.0432
0.6207 0.3408 0.0432
0.6543 0.3382 0.0432
0.6863 0.3372 0.0437
0.7170 0.3426 0.0485
0.7468 0.3501 0.0548
0.7751 0.3584 0.0592
0.8024 0.3671 0.0626
0.8299 0.3782 0.0636
0.8563 0.3922 0.0619
0.8821 0.4068 0.0592
0.9073 0.4224 0.0552
0.9303 0.4377 0.0500
0.9517 0.4537 0.0452
0.9529 0.4650 0.0432
0.9529 0.4651 0.0432
0.0432 0.3199 0.0693
0.0432 0.3212 0.0663
0.0435 0.3317 0.0523
0.0657 0.3414 0.0432
0.1042 0.3480 0.0432
0.1430 0.3563 0.0432
0.1839 0.3658 0.0432
0.2257 0.3684 0.0506
0.2652 0.3658 0.0636
0.3014 0.3662 0.0728
0.3447 0.3773 0.0590
0.3948 0.3908 0.0438
0.4391 0.3975 0.0439
0.4735 0.4080 0.0439
0.5166 0.4201 0.0441
0.5462 0.3987 0.0470
0.5941 0.3806 0.0442
0.6302 0.3760 0.0432
0.6629 0.3722 0.0432
0.6941 0.3698 0.0432
0.7241 0.3678 0.0432
0.7538 0.3696 0.0432
0.7825 0.3781 0.0447
0.8098 0.3866 0.0468
0.8364 0.3959 0.0490
0.8623 0.4063 0.0508
0.8882 0.4211 0.0474
0.9140 0.4367 0.0445
0.9390 0.4535 0.0432
0.9527 0.4699 0.0432
0.9529 0.4790 0.0432
0.9529 0.4791 0.0432
0.0432 0.3349 0.0702
0.0432 0.3407 0.0627
0.0445 0.3533 0.0451
0.0767 0.3591 0.0432
0.1137 0.3657 0.0432
0.1519 0.3741 0.0432
0.1932 0.3837 0.0432
0.2356 0.3867 0.0504
0.2744 0.3852 0.0620
0.3105 0.3852 0.0711
0.3504 0.3949 0.0669
0.3995 0.4108 0.0439
0.4472 0.4215 0.0439
0.4837 0.4284 0.0440
0.5248 0.4455 0.0441
0.5624 0.4546 0.0442
0.5882 0.4318 0.0473
0.6359 0.4144 0.0454
0.6707 0.4090 0.0432
0.7019 0.4055 0.0432
0.7316 0.4023 0.0432
0.7606 0.4001 0.0432
0.7878 0.3990 0.0432
0.8155 0.4068 0.0432
0.8425 0.4162 0.0432
0.8684 0.4258 0.0432
0.8936 0.4364 0.0432
0.9188 0.4509 0.0432
0.9440 0.4679 0.0432
0.9529 0.4847 0.0432
0.9529 0.4905 0.0432
0.9529 0.4905 0.0432
0.0432 0.3557 0.0648
0.0432 0.3624 0.0553
0.0542 0.3718 0.0432
0.0876 0.3768 0.0432
0.1235 0.3835 0.0432
0.1619 0.3919 0.0432
0.2030 0.4012 0.0434
0.2452 0.4037 0.0508
0.2838 0.4035 0.0606
0.3197 0.4041 0.0687
0.3581 0.4131 0.0667
0.4031 0.4284 0.0448
0.4517 0.4435 0.0439
0.4974 0.4541 0.0440
0.5249 0.4605 0.0441
0.5702 0.4852 0.0442
0.6023 0.4915 0.0443
0.6266 0.4682 0.0465
0.6743 0.4522 0.0476
0.7080 0.4446 0.0439
0.7383 0.4405 0.0432
0.7662 0.4367 0.0432
0.7941 0.4332 0.0432
0.8205 0.4305 0.0432
0.8474 0.4369 0.0432
0.8732 0.4466 0.0432
0.8986 0.4566 0.0432
0.9236 0.4671 0.0432
0.9485 0.4818 0.0432
0.9529 0.4985 0.0432
0.9529 0.5023 0.0432
0.9529 0.5019 0.0432
0.0432 0.3778 0.0570
0.0435 0.3851 0.0456
0.0668 0.3894 0.0432
0.0986 0.3946 0.0432
0.1335 0.4018 0.0432
0.1710 0.4107 0.0432
0.2118 0.4190 0.0446
0.2532 0.4208 0.0531
0.2914 0.4217 0.0622
0.3269 0.4232 0.0693
0.3642 0.4319 0.0675
0.4046 0.4449 0.0540
0.4524 0.4630 0.0439
0.4983 0.4769 0.0440
0.5413 0.4886 0.0442
0.5645 0.4971 0.0442
0.6078 0.5230 0.0443
0.6393 0.5297 0.0443
0.6623 0.5066 0.0448
0.7097 0.4926 0.0497
0.7406 0.4811 0.0467
0.7711 0.4765 0.0441
0.7995 0.4724 0.0432
0.8260 0.4672 0.0432
0.8515 0.4630 0.0432
0.8774 0.4676 0.0432
0.9027 0.4774 0.0432
0.9276 0.4876 0.0432
0.9515 0.4989 0.0432
0.9529 0.5120 0.0432
0.9529 0.5142 0.0432
0.9529 0.5141 0.0432
0.0432 0.3998 0.0546
0.0443 0.4068 0.0432
0.0701 0.4107 0.0432
0.1015 0.4166 0.0432
0.1366 0.4242 0.0432
0.1753 0.4328 0.0435
0.2177 0.4367 0.0496
0.2592 0.4385 0.0582
0.2977 0.4408 0.0654
0.3337 0.4428 0.0713
0.3697 0.4500 0.0701
0.4084 0.4627 0.0618
0.4524 0.4799 0.0440
0.4992 0.4977 0.0440
0.5420 0.5114 0.0442
0.5783 0.5232 0.0442
0.6015 0.5336 0.0443
0.6428 0.5615 0.0443
0.6727 0.5681 0.0444
0.6955 0.5472 0.0444
0.7423 0.5337 0.0491
0.7721 0.5182 0.0483
0.8018 0.5126 0.0455
0.8307 0.5070 0.0432
0.8564 0.5015 0.0432
0.8814 0.4958 0.0432
0.9064 0.4986 0.0432
0.9316 0.5082 0.0432
0.9521 0.5182 0.0432
0.9529 0.5290 0.0432
0.9529 0.5281 0.0432
0.9529 0.5277 0.0432
0.0432 0.4216 0.0561
0.0435 0.4290 0.0439
0.0689 0.4334 0.0432
0.1014 0.4396 0.0432
0.1387 0.4471 0.0434
0.1807 0.4511 0.0482
0.2235 0.4528 0.0560
0.2648 0.4556 0.0634
0.3037 0.4582 0.0701
0.3400 0.4618 0.0743
0.3749 0.4674 0.0739
0.4136 0.4812 0.0637
0.4534 0.4958 0.0492
0.4991 0.5152 0.0441
0.5433 0.5328 0.0442
0.5831 0.5471 0.0442
0.6136 0.5587 0.0443
0.6360 0.5706 0.0443
0.6757 0.5991 0.0444
0.7036 0.6067 0.0444
0.7277 0.5904 0.0445
0.7719 0.5742 0.0464
0.8016 0.5559 0.0506
0.8302 0.5493 0.0477
0.8575 0.5423 0.0457
0.8853 0.5353 0.0432
0.9094 0.5281 0.0432
0.9335 0.5296 0.0432
0.9523 0.5391 0.0432
0.9529 0.5486 0.0432
0.9529 0.5468 0.0432
0.9529 0.5468 0.0432
0.0455 0.4415 0.0586
0.0511 0.4430 0.0521
0.0756 0.4473 0.0515
0.1082 0.4539 0.0511
0.1449 0.4623 0.0504
0.1870 0.4653 0.0561
0.2299 0.4676 0.0634
0.2708 0.4714 0.0696
0.3101 0.4753 0.0751
0.3466 0.4800 0.0784
0.3813 0.4854 0.0783
0.4196 0.4990 0.0669
0.4585 0.5139 0.0519
0.4998 0.5315 0.0441
0.5440 0.5516 0.0442
0.5841 0.5677 0.0442
0.6204 0.5827 0.0443
0.6466 0.5936 0.0443
0.6683 0.6068 0.0444
0.7056 0.6356 0.0444
0.7340 0.6459 0.0445
0.7586 0.6340 0.0446
0.8006 0.6154 0.0450
0.8314 0.5937 0.0509
0.8562 0.5839 0.0506
0.8842 0.5756 0.0475
0.9116 0.5682 0.0444
0.9371 0.5597 0.0432
0.9525 0.5603 0.0432
0.9529 0.5701 0.0432
0.9529 0.5672 0.0432
0.9529 0.5675 0.0432
0.0569 0.4528 0.0681
0.0625 0.4539 0.0627
0.0860 0.4584 0.0623
0.1174 0.4653 0.0615
0.1527 0.4742 0.0604
0.1939 0.4783 0.0650
0.2365 0.4815 0.0714
0.2769 0.4863 0.0768
0.3162 0.4916 0.0813
0.3535 0.4975 0.0838
0.3887 0.5033 0.0838
0.4256 0.5161 0.0726
0.4645 0.5320 0.0553
0.5030 0.5478 0.0441
0.5448 0.5677 0.0442
0.5852 0.5868 0.0442
0.6212 0.6029 0.0443
0.6546 0.6178 0.0443
0.6789 0.6297 0.0444
0.6998 0.6434 0.0444
0.7340 0.6715 0.0445
0.7616 0.6839 0.0446
0.7840 0.6749 0.0446
0.8270 0.6541 0.0446
0.8615 0.6305 0.0484
0.8833 0.6183 0.0514
0.9096 0.6079 0.0494
0.9367 0.5994 0.0464
0.9516 0.5918 0.0445
0.9516 0.5918 0.0445
0.9516 0.5883 0.0445
0.9516 0.5883 0.0445
0.0696 0.4626 0.0787
0.0751 0.4639 0.0740
0.0975 0.4688 0.0736
0.1273 0.4761 0.0727
0.1618 0.4855 0.0709
0.2016 0.4909 0.0743
0.2432 0.4946 0.0802
0.2840 0.5000 0.0852
0.3233 0.5064 0.0891
0.3610 0.5136 0.0909
0.3963 0.5204 0.0906
0.4332 0.5326 0.0808
0.4721 0.5497 0.0615
0.5096 0.5660 0.0445
0.5470 0.5831 0.0442
0.5860 0.6027 0.0443
0.6227 0.6210 0.0443
0.6557 0.6372 0.0443
0.6871 0.6534 0.0444
0.7102 0.6662 0.0444
0.7276 0.6776 0.0445
0.7606 0.7068 0.0446
0.7886 0.7215 0.0446
0.8092 0.7138 0.0446
0.8527 0.6914 0.0447
0.8896 0.6655 0.0469
0.9121 0.6523 0.0504
0.9345 0.6405 0.0518
0.9462 0.6306 0.0499
0.9480 0.6238 0.0481
0.9480 0.6155 0.0481
0.9480 0.6155 0.0481
0.0836 0.4718 0.0894
0.0895 0.4735 0.0864
0.1104 0.4784 0.0858
0.1393 0.4860 0.0846
0.1725 0.4960 0.0824
0.2109 0.5022 0.0849
0.2516 0.5064 0.0903
0.2916 0.5126 0.0949
0.3309 0.5203 0.0979
0.3690 0.5286 0.0995
0.4047 0.5409 0.0945
0.4401 0.5547 0.0819
0.4780 0.5736 0.0578
0.5155 0.5919 0.0451
0.5511 0.6089 0.0443
0.5849 0.6248 0.0443
0.6196 0.6427 0.0443
0.6536 0.6606 0.0443
0.6857 0.6771 0.0444
0.7155 0.6926 0.0445
0.7387 0.7048 0.0445
0.7534 0.7136 0.0445
0.7853 0.7403 0.0446
0.8149 0.7574 0.0446
0.8347 0.7488 0.0447
0.8794 0.7258 0.0447
0.9172 0.6990 0.0453
0.9394 0.6843 0.0503
0.9439 0.6718 0.0522
0.9441 0.6620 0.0521
0.9444 0.6514 0.0518
0.9444 0.6520 0.0518
0.0988 0.4803 0.1016
0.1061 0.4821 0.0999
0.1254 0.4875 0.0990
0.1503 0.4996 0.0942
0.1791 0.5153 0.0876
0.2145 0.5281 0.0845
0.2523 0.5397 0.0832
0.2908 0.5533 0.0801
0.3298 0.5679 0.0747
0.3683 0.5818 0.0660
0.4059 0.5947 0.0523
0.4410 0.6007 0.0461
0.4791 0.6174 0.0443
0.5171 0.6343 0.0443
0.5528 0.6492 0.0443
0.5869 0.6628 0.0443
0.6182 0.6756 0.0444
0.6484 0.6878 0.0444
0.6789 0.7018 0.0444
0.7111 0.7180 0.0445
0.7413 0.7323 0.0445
0.7649 0.7433 0.0446
0.7781 0.7485 0.0446
0.8103 0.7740 0.0446
0.8393 0.7887 0.0447
0.8596 0.7803 0.0447
0.9064 0.7584 0.0449
0.9437 0.7308 0.0450
0.9491 0.7169 0.0470
0.9473 0.7014 0.0488
0.9471 0.6899 0.0491
0.9471 0.6908 0.0491
0.0782 0.5409 0.0755
0.0864 0.5441 0.0738
0.1047 0.5537 0.0690
0.1306 0.5679 0.0612
0.1612 0.5846 0.0515
0.1993 0.5966 0.0459
0.2418 0.6027 0.0455
0.2842 0.6061 0.0449
0.3236 0.6073 0.0439
0.3612 0.6129 0.0432
0.3998 0.6301 0.0432
0.4400 0.6489 0.0432
0.4802 0.6658 0.0432
0.5181 0.6804 0.0439
0.5546 0.6930 0.0444
0.5887 0.7049 0.0444
0.6200 0.7152 0.0444
0.6504 0.7253 0.0445
0.6791 0.7353 0.0445
0.7065 0.7449 0.0445
0.7348 0.7562 0.0445
0.7644 0.7694 0.0446
0.7890 0.7784 0.0446
0.8029 0.7834 0.0446
0.8336 0.8057 0.0447
0.8645 0.8205 0.0447
0.8855 0.8097 0.0447
0.9335 0.7891 0.0449
0.9512 0.7600 0.0449
0.9512 0.7415 0.0449
0.9510 0.7285 0.0451
0.9510 0.7301 0.0451
0.0573 0.6013 0.0438
0.0696 0.6024 0.0436
0.0978 0.6044 0.0432
0.1340 0.6052 0.0432
