LUTs/M31 - Rec.709.cube
TITLE "M31 - Rec.709_32"
LUT_3D_SIZE 5
DOMAIN_MIN 0.000000 0.000000 0.000000
DOMAIN_MAX 0.903226 0.903226 0.903226
0.0432 0.0581 0.0668
0.1510 0.0953 0.0753
0.3398 0.1366 0.0762
0.5669 0.1707 0.1314
0.7770 0.2167 0.1732
0.0432 0.1682 0.0633
0.1753 0.1711 0.0671
0.4119 0.1882 0.0631
0.6295 0.2401 0.0999
0.8323 0.3064 0.1208
0.0432 0.2899 0.0610
0.2078 0.3279 0.0532
0.4922 0.3196 0.0444
0.7386 0.3311 0.0687
0.9193 0.4218 0.0610
0.0432 0.4216 0.0561
0.2648 0.4556 0.0634
0.5433 0.5328 0.0442
0.7719 0.5742 0.0464
0.9523 0.5391 0.0432
0.0573 0.6013 0.0438
0.2818 0.6292 0.0432
0.5560 0.7392 0.0439
0.7598 0.7949 0.0446
0.9511 0.8187 0.0449
0.0433 0.1137 0.1382
0.2062 0.1251 0.1547
0.4159 0.1438 0.1384
0.6063 0.1749 0.1450
0.7884 0.2176 0.1779
0.0434 0.1713 0.1729
0.1482 0.1940 0.2036
0.4111 0.2097 0.1644
0.6301 0.2018 0.1289
0.8149 0.2614 0.1470
0.0432 0.3261 0.1834
0.1014 0.3640 0.1111
0.4876 0.3603 0.1314
0.7281 0.3626 0.0432
0.8927 0.4470 0.0432
0.0432 0.3790 0.1843
0.1878 0.4746 0.1053
0.5271 0.5468 0.1314
0.7700 0.5940 0.0446
0.9525 0.5551 0.0432
0.0432 0.5456 0.1810
0.1886 0.7065 0.0448
0.5293 0.7286 0.0460
0.7554 0.8004 0.0446
0.9512 0.8142 0.0449
0.0435 0.1946 0.2394
0.1424 0.1951 0.2526
0.4953 0.2170 0.2244
0.6981 0.2288 0.2112
0.8550 0.2730 0.2286
0.0435 0.2134 0.2517
0.0884 0.2544 0.3063
0.4849 0.2597 0.2751
0.6946 0.2625 0.2530
0.8600 0.2938 0.2575
0.0437 0.3336 0.3384
0.0438 0.3878 0.3845
0.4031 0.4255 0.4305
0.6795 0.4430 0.4111
0.8702 0.4512 0.3664
0.0442 0.5749 0.4746
0.0432 0.5328 0.4031
0.4135 0.5715 0.3325
0.7424 0.6289 0.3071
0.9209 0.6195 0.3239
0.0432 0.6691 0.4146
0.0432 0.6592 0.3540
0.4122 0.7976 0.2305
0.7245 0.8127 0.3373
0.9503 0.8161 0.1393
0.0437 0.2743 0.3383
0.1182 0.2679 0.3261
0.4272 0.3037 0.3221
0.7491 0.3014 0.2392
0.8674 0.3288 0.2967
0.0437 0.2863 0.3494
0.0438 0.3137 0.3921
0.4153 0.3168 0.3906
0.7314 0.3280 0.3200
0.8622 0.3673 0.3743
0.0439 0.3576 0.4174
0.0440 0.4099 0.4803
0.3080 0.4486 0.5614
0.7091 0.4615 0.5175
0.8600 0.4959 0.5427
0.0442 0.5160 0.5479
0.0442 0.5616 0.5834
0.2107 0.6222 0.6539
0.6904 0.6685 0.6624
0.8794 0.6805 0.6515
0.0445 0.7510 0.7080
0.0446 0.7996 0.7317
0.0443 0.7933 0.6264
0.6651 0.8433 0.5439
0.9299 0.8409 0.5030
0.0439 0.3605 0.4481
0.0769 0.3555 0.4255
0.3634 0.3700 0.4224
0.6744 0.4082 0.4478
0.8800 0.4375 0.5405
0.0440 0.3727 0.4712
0.0440 0.3899 0.5070
0.2780 0.3766 0.4811
0.6753 0.4143 0.5255
0.8973 0.4455 0.6078
0.0441 0.4305 0.5392
0.0442 0.4689 0.5925
0.1925 0.4880 0.6616
0.6258 0.4704 0.6993
0.9144 0.5076 0.7259
0.0443 0.5352 0.6548
0.0444 0.5805 0.7024
0.1297 0.6038 0.7366
0.6016 0.6541 0.7960
0.9078 0.6606 0.8030
0.0446 0.6888 0.7795
0.0446 0.7195 0.7961
0.0446 0.7587 0.8238
0.5216 0.8104 0.8469
0.8844 0.8691 0.8435
