LUTs/M31 - Rec.709.cube
TITLE "M31 - Rec.709_32"
LUT_3D_SIZE 8
DOMAIN_MIN 0.000000 0.000000 0.000000
DOMAIN_MAX 0.903226 0.903226 0.903226
0.0432 0.0581 0.0668
0.0848 0.0747 0.0729
0.1760 0.1010 0.0747
0.2876 0.1206 0.0718
0.4024 0.1472 0.0895
0.5350 0.1655 0.1230
0.6579 0.1873 0.1541
0.7770 0.2167 0.1732
0.0432 0.1129 0.0675
0.0793 0.1187 0.0711
0.1951 0.1217 0.0627
0.3076 0.1472 0.0619
0.4275 0.1682 0.0832
0.5572 0.1866 0.1136
0.6786 0.2109 0.1377
0.7946 0.2407 0.1557
0.0432 0.1869 0.0627
0.0814 0.2058 0.0537
0.2127 0.1874 0.0624
0.3568 0.1820 0.0461
0.4975 0.2093 0.0774
0.6209 0.2422 0.0956
0.7362 0.2817 0.1061
0.8459 0.3297 0.1088
0.0432 0.2561 0.0606
0.0795 0.2797 0.0432
0.2296 0.2750 0.0785
0.3840 0.2645 0.0550
0.5537 0.2585 0.0584
0.6906 0.2922 0.0825
0.7991 0.3349 0.0883
0.8988 0.3904 0.0805
0.0432 0.3199 0.0693
0.1042 0.3480 0.0432
0.2652 0.3658 0.0636
0.4391 0.3975 0.0439
0.5941 0.3806 0.0442
0.7241 0.3678 0.0432
0.8364 0.3959 0.0490
0.9390 0.4535 0.0432
0.0432 0.3998 0.0546
0.1366 0.4242 0.0432
0.2977 0.4408 0.0654
0.4524 0.4799 0.0440
0.6015 0.5336 0.0443
0.7423 0.5337 0.0491
0.8564 0.5015 0.0432
0.9521 0.5182 0.0432
0.0696 0.4626 0.0787
0.1618 0.4855 0.0709
0.3233 0.5064 0.0891
0.4721 0.5497 0.0615
0.6227 0.6210 0.0443
0.7276 0.6776 0.0445
0.8527 0.6914 0.0447
0.9462 0.6306 0.0499
0.0573 0.6013 0.0438
0.1732 0.6056 0.0432
0.3182 0.6460 0.0432
0.4802 0.7148 0.0432
0.6217 0.7570 0.0445
0.7343 0.7880 0.0446
0.8272 0.8161 0.0446
0.9511 0.8187 0.0449
0.0432 0.0850 0.1014
0.1103 0.0901 0.1153
0.2052 0.1030 0.1123
0.3183 0.1080 0.0998
0.4190 0.1314 0.1107
0.5413 0.1569 0.1395
0.6592 0.1835 0.1636
0.7729 0.2101 0.1832
0.0433 0.1117 0.1186
0.0806 0.1181 0.1267
0.1885 0.1439 0.1245
0.3172 0.1584 0.0947
0.4388 0.1668 0.0879
0.5617 0.1783 0.1220
0.6783 0.2017 0.1458
0.7926 0.2313 0.1634
0.0432 0.1976 0.1155
0.0570 0.2146 0.1070
0.2133 0.2005 0.1056
0.3569 0.1950 0.0708
0.4845 0.2208 0.0638
0.6032 0.2473 0.0858
0.7187 0.2791 0.1020
0.8291 0.3139 0.1143
0.0432 0.2591 0.0854
0.0432 0.2890 0.0762
0.2219 0.2922 0.0981
0.3924 0.2817 0.0833
0.5666 0.2700 0.0533
0.6874 0.3041 0.0718
0.7888 0.3449 0.0765
0.8859 0.4003 0.0668
0.0432 0.3161 0.0923
0.0457 0.3705 0.0463
0.2496 0.3803 0.0835
0.4404 0.4096 0.0439
0.5990 0.3993 0.0464
0.7306 0.3825 0.0432
0.8416 0.4093 0.0432
0.9319 0.4658 0.0432
0.0432 0.3660 0.1173
0.0972 0.4337 0.0543
0.2772 0.4486 0.0857
0.4460 0.4857 0.0922
0.6067 0.5453 0.0443
0.7424 0.5458 0.0478
0.8575 0.5117 0.0432
0.9526 0.5289 0.0432
0.0475 0.4595 0.1244
0.1381 0.4827 0.0905
0.3028 0.5065 0.1032
0.4636 0.5497 0.1102
0.6233 0.6289 0.0443
0.7295 0.6834 0.0445
0.8506 0.6915 0.0447
0.9462 0.6376 0.0499
0.0432 0.5706 0.1205
0.1323 0.6381 0.0432
0.3034 0.6406 0.0432
0.4649 0.6965 0.0432
0.6170 0.7628 0.0446
0.7329 0.7914 0.0446
0.8251 0.8139 0.0446
0.9511 0.8168 0.0449
0.0433 0.1241 0.1516
0.0835 0.1259 0.1569
0.2408 0.1375 0.1675
0.3597 0.1465 0.1548
0.4957 0.1611 0.1524
0.6045 0.1742 0.1455
0.6941 0.1969 0.1587
0.7952 0.2218 0.1753
0.0434 0.1313 0.1551
0.0708 0.1530 0.1789
0.2332 0.1606 0.1885
0.3631 0.1640 0.1695
0.4999 0.1700 0.1571
0.6250 0.1803 0.1500
0.7011 0.2029 0.1544
0.7986 0.2251 0.1724
0.0434 0.1931 0.1931
0.0447 0.2120 0.2103
0.1733 0.2237 0.2337
0.3383 0.2375 0.2146
0.4905 0.2258 0.1835
0.6206 0.2193 0.1624
0.7349 0.2333 0.1497
0.8295 0.2759 0.1412
0.0433 0.3174 0.2468
0.0432 0.3067 0.2018
0.1194 0.3361 0.1724
0.3734 0.3183 0.1854
0.5441 0.3034 0.1511
0.6681 0.3338 0.1388
0.7694 0.3683 0.1252
0.8736 0.4070 0.0979
0.0432 0.3668 0.2156
0.0432 0.3479 0.1801
0.1587 0.4102 0.1277
0.4063 0.4275 0.1689
0.5830 0.4285 0.1310
0.7228 0.4044 0.0643
0.8200 0.4347 0.0432
0.9096 0.4861 0.0432
0.0432 0.3962 0.2181
0.0432 0.3724 0.1740
0.2085 0.4727 0.1235
0.4171 0.4930 0.1792
0.6117 0.5653 0.0779
0.7385 0.5644 0.0450
0.8485 0.5224 0.0436
0.9478 0.5445 0.0432
0.0432 0.4089 0.2296
0.0432 0.4355 0.1964
0.2458 0.5229 0.1411
0.4376 0.5511 0.1736
0.6054 0.6303 0.1568
0.7342 0.6959 0.0445
0.8511 0.6922 0.0447
0.9462 0.6374 0.0499
0.0432 0.5426 0.2026
0.0432 0.5832 0.1756
0.2130 0.7281 0.0536
0.4398 0.7260 0.0754
0.5968 0.7588 0.0836
0.7253 0.7976 0.0775
0.8275 0.8189 0.0446
0.9512 0.8136 0.0449
0.0435 0.1700 0.2090
0.0770 0.1680 0.2075
0.2055 0.1737 0.2365
0.4014 0.1928 0.2124
0.5371 0.1942 0.1951
0.6586 0.2090 0.1961
0.7571 0.2310 0.2046
0.8491 0.2474 0.2035
0.0435 0.1755 0.2132
0.0536 0.1923 0.2341
0.1684 0.1922 0.2544
0.4011 0.2085 0.2296
0.5393 0.2080 0.2107
0.6608 0.2198 0.2086
0.7592 0.2402 0.2155
0.8520 0.2546 0.2113
0.0435 0.2071 0.2358
0.0435 0.2319 0.2621
0.1243 0.2525 0.2940
0.3818 0.2574 0.2795
0.5318 0.2543 0.2582
0.6539 0.2535 0.2435
0.7556 0.2623 0.2369
0.8564 0.2759 0.2296
0.0436 0.2853 0.2871
0.0436 0.3128 0.3079
0.0599 0.3429 0.3403
0.3101 0.3557 0.3629
0.5020 0.3601 0.3432
0.6439 0.3631 0.3246
0.7562 0.3625 0.3029
0.8639 0.3815 0.2818
0.0439 0.4164 0.3554
0.0439 0.4499 0.3691
0.0432 0.4373 0.3330
0.2801 0.4584 0.2830
0.5502 0.4693 0.2964
0.6928 0.4552 0.2915
0.7975 0.4915 0.2852
0.8924 0.5294 0.2716
0.0432 0.5171 0.3901
0.0432 0.4811 0.3387
0.0463 0.4674 0.3025
0.3321 0.5275 0.2514
0.5723 0.5759 0.2782
0.7190 0.5858 0.2316
0.8351 0.5463 0.2260
0.9260 0.5808 0.2213
0.0432 0.5156 0.3615
0.0432 0.4878 0.3310
0.0902 0.4865 0.2942
0.3739 0.5736 0.2451
0.5702 0.6264 0.2818
0.7280 0.7061 0.2401
0.8452 0.7022 0.1275
0.9478 0.6470 0.1347
0.0432 0.6283 0.3506
0.0432 0.6177 0.3090
0.0432 0.6246 0.2421
0.3423 0.7758 0.1584
0.5642 0.7778 0.2129
0.7053 0.8033 0.2600
0.8295 0.8288 0.2402
0.9508 0.8134 0.0449
0.0435 0.2188 0.2690
0.0624 0.2148 0.2633
0.1642 0.2186 0.2833
0.3592 0.2442 0.2734
0.5857 0.2353 0.2256
0.6913 0.2417 0.2208
0.7777 0.2622 0.2274
0.8627 0.2908 0.2385
0.0436 0.2238 0.2757
0.0436 0.2358 0.2907
0.1445 0.2343 0.2947
0.3562 0.2542 0.2929
0.5824 0.2466 0.2421
0.6880 0.2519 0.2364
0.7778 0.2740 0.2439
0.8652 0.3023 0.2555
0.0436 0.2420 0.2861
0.0436 0.2633 0.3106
0.1044 0.2884 0.3497
0.3158 0.2740 0.3576
0.5709 0.2895 0.2962
0.6769 0.2861 0.2814
0.7735 0.3054 0.2869
0.8648 0.3283 0.2958
0.0437 0.2905 0.3273
0.0437 0.3220 0.3594
0.0508 0.3507 0.3965
0.2525 0.3710 0.4336
0.5378 0.3744 0.3902
0.6645 0.3785 0.3803
0.7670 0.3792 0.3692
0.8647 0.3789 0.3512
0.0438 0.3847 0.3944
0.0439 0.4139 0.4147
0.0439 0.4488 0.4493
0.1914 0.4850 0.4921
0.4961 0.4929 0.4985
0.6486 0.5091 0.4939
0.7717 0.5229 0.4844
0.8751 0.5236 0.4559
0.0441 0.5190 0.4712
0.0442 0.5514 0.4831
0.0442 0.5890 0.5132
0.1287 0.5706 0.4799
0.4808 0.5874 0.4434
0.6910 0.6167 0.4271
0.8080 0.6098 0.4509
0.9011 0.6433 0.4498
0.0443 0.6550 0.5648
0.0443 0.6353 0.5271
0.0442 0.5946 0.4722
0.1861 0.5774 0.4369
0.5092 0.6418 0.4016
0.6928 0.7042 0.4291
0.8291 0.7222 0.3496
0.9335 0.6811 0.3752
0.0432 0.7224 0.5312
0.0432 0.7038 0.4669
0.0432 0.6989 0.4253
0.0731 0.7719 0.3489
0.4801 0.8166 0.3141
0.6756 0.8138 0.3879
0.8144 0.8341 0.4147
0.9471 0.8215 0.2662
0.0437 0.2638 0.3247
0.0450 0.2597 0.3175
0.1481 0.2560 0.3164
0.3496 0.2762 0.3292
0.5382 0.2842 0.2823
0.7216 0.2867 0.2309
0.8014 0.3024 0.2447
0.8673 0.3221 0.2820
0.0437 0.2690 0.3344
0.0437 0.2777 0.3449
0.1294 0.2744 0.3384
0.3173 0.2750 0.3573
0.5284 0.3010 0.3092
0.7190 0.2965 0.2506
0.7963 0.3114 0.2731
0.8665 0.3326 0.3088
0.0437 0.2786 0.3361
0.0437 0.2939 0.3557
0.0649 0.3179 0.3958
0.2466 0.3105 0.4002
0.5068 0.3360 0.3648
0.7031 0.3254 0.3177
0.7831 0.3383 0.3332
0.8618 0.3685 0.3734
0.0438 0.3227 0.3788
0.0439 0.3519 0.4111
0.0439 0.3733 0.4429
0.2178 0.3949 0.4919
0.4958 0.3860 0.4644
0.6842 0.4039 0.4372
0.7719 0.4211 0.4489
0.8587 0.4418 0.4723
0.0439 0.3824 0.4329
0.0440 0.4168 0.4689
0.0441 0.4493 0.5096
0.1854 0.4753 0.5492
0.4281 0.4990 0.5886
0.6710 0.5104 0.5539
0.7708 0.5325 0.5623
0.8639 0.5324 0.5490
0.0441 0.4892 0.5159
0.0441 0.5138 0.5304
0.0442 0.5471 0.5634
0.0649 0.5832 0.6068
0.3715 0.6152 0.6424
0.6552 0.6357 0.6305
0.7777 0.6464 0.6293
0.8788 0.6515 0.6168
0.0443 0.6182 0.6036
0.0443 0.6466 0.6154
0.0444 0.6841 0.6378
0.0444 0.7135 0.6651
0.3116 0.6889 0.6192
0.6570 0.7080 0.5876
0.8138 0.7471 0.5477
0.9111 0.7382 0.5837
0.0445 0.7588 0.7001
0.0446 0.7860 0.7120
0.0446 0.7874 0.6687
0.0437 0.7772 0.5943
0.2637 0.8197 0.5275
0.6282 0.8387 0.4955
0.7947 0.8388 0.5529
0.9336 0.8365 0.4542
0.0438 0.3083 0.3807
0.0438 0.3054 0.3720
0.1346 0.3012 0.3618
0.2821 0.3112 0.3796
0.5068 0.3383 0.3407
0.6823 0.3352 0.3168
0.8080 0.3455 0.3351
0.8705 0.3751 0.3869
0.0438 0.3142 0.3952
0.0438 0.3211 0.4021
0.1094 0.3161 0.3869
0.2485 0.3178 0.3957
0.4940 0.3501 0.3676
0.6716 0.3499 0.3541
0.8041 0.3653 0.3771
0.8665 0.3886 0.4189
0.0438 0.3222 0.3962
0.0439 0.3335 0.4130
0.0439 0.3510 0.4479
0.2108 0.3513 0.4452
0.4855 0.3634 0.4299
0.6506 0.3815 0.4270
0.7934 0.3954 0.4475
0.8621 0.4143 0.4732
0.0439 0.3619 0.4374
0.0440 0.3877 0.4702
0.0440 0.3975 0.4898
0.1634 0.4168 0.5438
0.4012 0.3918 0.5395
0.6516 0.4252 0.5318
0.7954 0.4461 0.5425
0.8637 0.4694 0.5531
0.0440 0.4141 0.4947
0.0441 0.4457 0.5316
0.0442 0.4714 0.5660
0.1371 0.4903 0.5997
0.3752 0.5160 0.6604
0.6310 0.5006 0.6544
0.8031 0.5259 0.6382
0.8706 0.5565 0.6386
0.0442 0.4887 0.5686
0.0442 0.5215 0.6019
0.0443 0.5478 0.6326
0.0519 0.5685 0.6632
0.3494 0.5902 0.6929
0.6082 0.6252 0.7154
0.7971 0.6373 0.7043
0.8726 0.6577 0.7039
0.0443 0.5927 0.6489
0.0443 0.6128 0.6592
0.0444 0.6375 0.6822
0.0444 0.6663 0.7131
0.2736 0.6981 0.7436
0.5659 0.7332 0.7581
0.7842 0.7609 0.7496
0.8829 0.7634 0.7447
0.0445 0.7097 0.7406
0.0445 0.7357 0.7498
0.0446 0.7688 0.7647
0.0446 0.8071 0.7804
0.0755 0.8394 0.7899
0.4618 0.8462 0.7221
0.7723 0.8569 0.6925
0.9158 0.8565 0.6576
0.0439 0.3605 0.4481
0.0439 0.3587 0.4370
0.1120 0.3546 0.4217
0.2436 0.3587 0.4159
0.4796 0.3938 0.4171
0.6395 0.4060 0.4414
0.7733 0.4187 0.4774
0.8800 0.4375 0.5405
0.0440 0.3681 0.4679
0.0440 0.3722 0.4727
0.0750 0.3677 0.4526
0.2164 0.3628 0.4372
0.4802 0.3820 0.4560
0.6373 0.4095 0.4729
0.7738 0.4241 0.5091
0.8874 0.4405 0.5696
0.0440 0.3745 0.4718
0.0440 0.3828 0.4880
0.0439 0.3974 0.5210
0.1785 0.3958 0.5061
0.3860 0.3730 0.5228
0.6408 0.4084 0.5444
0.7800 0.4304 0.5676
0.9007 0.4490 0.6223
0.0440 0.4064 0.5085
0.0441 0.4276 0.5391
0.0441 0.4290 0.5490
0.0934 0.4477 0.6037
0.3239 0.4380 0.6233
0.5969 0.4331 0.6541
0.7843 0.4565 0.6545
0.9113 0.4797 0.6906
0.0442 0.4574 0.5706
0.0443 0.4881 0.6079
0.0443 0.5059 0.6341
0.0511 0.5102 0.6497
0.2943 0.5317 0.7144
0.5285 0.5029 0.7152
0.7779 0.5253 0.7497
0.9160 0.5433 0.7556
0.0443 0.5182 0.6369
0.0444 0.5487 0.6701
0.0444 0.5696 0.6941
0.0444 0.5827 0.7148
0.2784 0.5955 0.7394
0.5415 0.6267 0.7859
0.7553 0.6248 0.7861
0.9109 0.6346 0.7954
0.0444 0.5929 0.7076
0.0445 0.6212 0.7328
0.0445 0.6383 0.7507
0.0446 0.6507 0.7657
0.2438 0.6636 0.7814
0.5153 0.6957 0.8034
0.7548 0.7469 0.8133
0.8954 0.7480 0.8234
0.0446 0.6888 0.7795
0.0446 0.7050 0.7870
0.0446 0.7247 0.7999
0.0446 0.7464 0.8156
0.0970 0.7711 0.8316
0.4479 0.8019 0.8449
0.7193 0.8379 0.8489
0.8844 0.8691 0.8435
